assets/svg/httpslock.svg

<!-- Generated by IcoMoon.io -->
<svg version="1.1" xmlns="http://www.w3.org/2000/svg" width="24" height="24" viewBox="0 0 24 24">
<title>httpslock</title>
<path d="M15.094 8.016v-2.016q0-1.266-0.914-2.18t-2.18-0.914-2.18 0.914-0.914 2.18v2.016h6.188zM12 17.016q0.797 0 1.406-0.609t0.609-1.406-0.609-1.406-1.406-0.609-1.406 0.609-0.609 1.406 0.609 1.406 1.406 0.609zM18 8.016q0.797 0 1.406 0.586t0.609 1.383v10.031q0 0.797-0.609 1.383t-1.406 0.586h-12q-0.797 0-1.406-0.586t-0.609-1.383v-10.031q0-0.797 0.609-1.383t1.406-0.586h0.984v-2.016q0-2.063 1.477-3.539t3.539-1.477 3.539 1.477 1.477 3.539v2.016h0.984z"></path>
</svg>

<svg xmlns="http://www.w3.org/2000/svg" viewBox="0 0 24 24"><path d="M15.094 8.016V6q0-1.266-.914-2.18T12 2.906t-2.18.914T8.906 6v2.016h6.188zm-3.094 9q.797 0 1.406-.609t.609-1.406-.609-1.406T12 12.986t-1.406.609-.609 1.406.609 1.406 1.406.609zm6-9q.797 0 1.406.586t.609 1.383v10.031q0 .797-.609 1.383T18 21.985H6q-.797 0-1.406-.586t-.609-1.383V9.985q0-.797.609-1.383T6 8.016h.984V6q0-2.063 1.477-3.539T12 .984t3.539 1.477T17.016 6v2.016H18z"/></svg>
